5-network/10-long-polling/long-polling.svg

<?xml version="1.0" encoding="UTF-8"?>
<svg width="521px" height="320px" viewBox="0 0 521 320" version="1.1" xmlns="http://www.w3.org/2000/svg" xmlns:xlink="http://www.w3.org/1999/xlink">
    <!-- Generator: sketchtool 61.2 (101010) - https://sketch.com -->
    <title>long-polling.svg</title>
    <desc>Created with sketchtool.</desc>
    <g id="network" stroke="none" stroke-width="1" fill="none" fill-rule="evenodd">
        <g id="long-polling.svg">
            <text id="Browser" font-family="Helvetica" font-size="16" font-weight="normal" fill="#000000">
                <tspan x="27" y="72">Browser</tspan>
            </text>
            <text id="Server" font-family="Helvetica" font-size="16" font-weight="normal" fill="#000000">
                <tspan x="31" y="224">Server</tspan>
            </text>
            <path id="Line" d="M450.809343,75.8190816 L451.245131,76.0642122 L459.245131,80.5642122 L460.019864,81 L459.245131,81.4357878 L451.245131,85.9357878 L450.809343,86.1809184 L450.319082,85.3093429 L450.754869,85.0642122 L457.091,81.5 L451,81.5 L67,81.5 L66.5,81.5 L66.5,80.5 L67,80.5 L451,80.5 L457.091,80.5 L450.754869,76.9357878 L450.319082,76.6906571 L450.809343,75.8190816 Z" fill="#000000" fill-rule="nonzero"></path>
            <path id="Line" d="M450.809343,200.319082 L451.245131,200.564212 L459.245131,205.064212 L460.019864,205.5 L459.245131,205.935788 L451.245131,210.435788 L450.809343,210.680918 L450.319082,209.809343 L450.754869,209.564212 L457.091,206 L65.5,206 L65.5,205 L457.091,205 L450.754869,201.435788 L450.319082,201.190657 L450.809343,200.319082 Z" fill="#000000" fill-rule="nonzero"></path>
            <text id="request" transform="translate(113.291381, 143.266023) rotate(76.000000) translate(-113.291381, -143.266023) " font-family="PTMono-Bold, PT Mono" font-size="14" font-weight="bold" line-spacing="18" fill="#8A704D">
                <tspan x="83.8913811" y="146.266023">request</tspan>
            </text>
            <text id="connection-hangs" font-family="Helvetica" font-size="14" font-weight="normal" line-spacing="18" fill="#8A704D">
                <tspan x="128.641602" y="226">connection</tspan>
                <tspan x="143.427734" y="244">hangs</tspan>
            </text>
            <text id="connection-breaks-en" font-family="Helvetica" font-size="12" font-weight="normal" line-spacing="18" fill="#8A704D">
                <tspan x="188.802734" y="262">connection breaks</tspan>
                <tspan x="199.138672" y="280">end of request</tspan>
            </text>
            <path id="Line-3" d="M90.2333351,80.7907773 L90.4712789,81.7620562 L117.64,192.663 L123.467739,191.236488 L120,206.5 L109.869834,194.567702 L115.697,193.139 L88.5287211,82.2379438 L88.2907773,81.2666649 L90.2333351,80.7907773 Z" fill="#EE6B47" fill-rule="nonzero"></path>
            <text id="data" transform="translate(206.380494, 143.266023) rotate(284.000000) translate(-206.380494, -143.266023) " font-family="PTMono-Bold, PT Mono" font-size="14" font-weight="bold" line-spacing="18" fill="#8A704D">
                <tspan x="189.580494" y="146.266023">data</tspan>
            </text>
            <path id="Line-2" d="M233.225828,82 L236.332669,97.3410408 L230.539,95.776 L200.965398,205.260782 L200.704616,206.226179 L198.773821,205.704616 L199.034602,204.739218 L228.609,95.255 L222.8171,93.6900979 L233.225828,82 Z" fill="#EE6B47" fill-rule="nonzero"></path>
            <path id="Line-2-Copy" d="M377.225828,82 L380.332669,97.3410408 L374.539,95.776 L344.965398,205.260782 L344.704616,206.226179 L342.773821,205.704616 L343.034602,204.739218 L372.609,95.255 L366.8171,93.6900979 L377.225828,82 Z" fill="#EE6B47" fill-rule="nonzero"></path>
            <text id="request-copy" transform="translate(260.291381, 143.266023) rotate(76.000000) translate(-260.291381, -143.266023) " font-family="PTMono-Bold, PT Mono" font-size="14" font-weight="bold" line-spacing="18" fill="#8A704D">
                <tspan x="230.891381" y="146.266023">request</tspan>
            </text>
            <text id="connection-hangs-copy" font-family="Helvetica" font-size="14" font-weight="normal" line-spacing="18" fill="#8A704D">
                <tspan x="272.641602" y="226">connection</tspan>
                <tspan x="287.427734" y="244">hangs</tspan>
            </text>
            <path id="Line-3-Copy-3" d="M237.233335,80.7907773 L237.471279,81.7620562 L264.64,192.663 L270.467739,191.236488 L267,206.5 L256.869834,194.567702 L262.697,193.139 L235.528721,82.2379438 L235.290777,81.2666649 L237.233335,80.7907773 Z" fill="#EE6B47" fill-rule="nonzero"></path>
            <text id="request-copy-2" transform="translate(404.291381, 143.266023) rotate(76.000000) translate(-404.291381, -143.266023) " font-family="PTMono-Bold, PT Mono" font-size="14" font-weight="bold" line-spacing="18" fill="#8A704D">
                <tspan x="374.891381" y="146.266023">request</tspan>
            </text>
            <path id="Line-3-Copy-4" d="M381.233335,80.7907773 L381.471279,81.7620562 L408.64,192.663 L414.467739,191.236488 L411,206.5 L400.869834,194.567702 L406.697,193.139 L379.528721,82.2379438 L379.290777,81.2666649 L381.233335,80.7907773 Z" fill="#EE6B47" fill-rule="nonzero"></path>
            <text id="data-copy" transform="translate(350.380494, 143.266023) rotate(284.000000) translate(-350.380494, -143.266023) " font-family="PTMono-Bold, PT Mono" font-size="14" font-weight="bold" line-spacing="18" fill="#8A704D">
                <tspan x="333.580494" y="146.266023">data</tspan>
            </text>
            <line x1="235" y1="40.75" x2="235" y2="241.75" id="Line" stroke="#979797" stroke-linecap="square" stroke-dasharray="3,3"></line>
            <text id="connection-breaks-en-copy" font-family="Helvetica" font-size="12" font-weight="normal" line-spacing="18" fill="#8A704D">
                <tspan x="332.802734" y="262">connection breaks</tspan>
                <tspan x="343.138672" y="280">end of request</tspan>
            </text>
            <line x1="379" y1="40.75" x2="379" y2="241.75" id="Line-Copy" stroke="#979797" stroke-linecap="square" stroke-dasharray="3,3"></line>
        </g>
    </g>
</svg>

<svg xmlns="http://www.w3.org/2000/svg" width="521" height="320" viewBox="0 0 521 320"><defs><style>@import url(https://fonts.googleapis.com/css?family=Open+Sans:bold,italic,bolditalic%7CPT+Mono);@font-face{font-family:&apos;PT Mono&apos;;font-weight:700;font-style:normal;src:local(&apos;PT MonoBold&apos;),url(/font/PTMonoBold.woff2) format(&apos;woff2&apos;),url(/font/PTMonoBold.woff) format(&apos;woff&apos;),url(/font/PTMonoBold.ttf) format(&apos;truetype&apos;)}</style></defs><g id="network" fill="none" fill-rule="evenodd" stroke="none" stroke-width="1"><g id="long-polling.svg"><text id="Browser" fill="#000" font-family="OpenSans-Regular, Open Sans" font-size="16" font-weight="normal"><tspan x="27" y="74">Browser</tspan></text><text id="Server" fill="#000" font-family="OpenSans-Regular, Open Sans" font-size="16" font-weight="normal"><tspan x="31" y="226">Server</tspan></text><path id="Line" fill="#000" fill-rule="nonzero" d="M450.81 75.82l.435.244 8 4.5.775.436-.775.436-8 4.5-.436.245-.49-.872.436-.245 6.336-3.564H66.5v-1h390.591l-6.336-3.564-.436-.245.49-.872zM450.81 200.32l.435.244 8 4.5.775.436-.775.436-8 4.5-.436.245-.49-.872.436-.245L457.09 206H65.5v-1h391.591l-6.336-3.564-.436-.245.49-.872z"/><text id="request" fill="#8A704D" font-family="PTMono-Bold, PT Mono" font-size="14" font-weight="bold" transform="rotate(76 113.291 143.266)"><tspan x="83.891" y="146.266">request</tspan></text><text id="connection-hangs" fill="#8A704D" font-family="OpenSans-Regular, Open Sans" font-size="14" font-weight="normal"><tspan x="126" y="227">connection</tspan> <tspan x="142.519" y="245">hangs</tspan></text><text id="connection-breaks-en" fill="#8A704D" font-family="OpenSans-Regular, Open Sans" font-size="12" font-weight="normal"><tspan x="186.21" y="264">connection breaks</tspan> <tspan x="196.599" y="282">end of request</tspan></text><path id="Line-3" fill="#EE6B47" fill-rule="nonzero" d="M90.233 80.79l.238.972 27.169 110.901 5.828-1.427L120 206.5l-10.13-11.932 5.827-1.429L88.529 82.238l-.238-.971 1.942-.476z"/><text id="data" fill="#8A704D" font-family="PTMono-Bold, PT Mono" font-size="14" font-weight="bold" transform="rotate(-76 206.38 143.266)"><tspan x="189.58" y="146.266">data</tspan></text><path id="Line-2" fill="#EE6B47" fill-rule="nonzero" d="M233.226 82l3.107 15.341-5.794-1.565-29.574 109.485-.26.965-1.931-.521.26-.966L228.61 95.255l-5.792-1.565L233.226 82z"/><path id="Line-2-Copy" fill="#EE6B47" fill-rule="nonzero" d="M377.226 82l3.107 15.341-5.794-1.565-29.574 109.485-.26.965-1.931-.521.26-.966L372.61 95.255l-5.792-1.565L377.226 82z"/><text id="request-copy" fill="#8A704D" font-family="PTMono-Bold, PT Mono" font-size="14" font-weight="bold" transform="rotate(76 260.291 143.266)"><tspan x="230.891" y="146.266">request</tspan></text><text id="connection-hangs-copy" fill="#8A704D" font-family="OpenSans-Regular, Open Sans" font-size="14" font-weight="normal"><tspan x="270" y="227">connection</tspan> <tspan x="286.519" y="245">hangs</tspan></text><path id="Line-3-Copy-3" fill="#EE6B47" fill-rule="nonzero" d="M237.233 80.79l.238.972 27.169 110.901 5.828-1.427L267 206.5l-10.13-11.932 5.827-1.429-27.168-110.901-.238-.971 1.942-.476z"/><text id="request-copy-2" fill="#8A704D" font-family="PTMono-Bold, PT Mono" font-size="14" font-weight="bold" transform="rotate(76 404.291 143.266)"><tspan x="374.891" y="146.266">request</tspan></text><path id="Line-3-Copy-4" fill="#EE6B47" fill-rule="nonzero" d="M381.233 80.79l.238.972 27.169 110.901 5.828-1.427L411 206.5l-10.13-11.932 5.827-1.429-27.168-110.901-.238-.971 1.942-.476z"/><text id="data-copy" fill="#8A704D" font-family="PTMono-Bold, PT Mono" font-size="14" font-weight="bold" transform="rotate(-76 350.38 143.266)"><tspan x="333.58" y="146.266">data</tspan></text><path id="Line" stroke="#979797" stroke-dasharray="3,3" stroke-linecap="square" d="M235 40.75v201"/><text id="connection-breaks-en-copy" fill="#8A704D" font-family="OpenSans-Regular, Open Sans" font-size="12" font-weight="normal"><tspan x="330.21" y="264">connection breaks</tspan> <tspan x="340.599" y="282">end of request</tspan></text><path id="Line-Copy" stroke="#979797" stroke-dasharray="3,3" stroke-linecap="square" d="M379 40.75v201"/></g></g></svg>
